svg/device/radar_line.svg

<?xml version="1.0" encoding="UTF-8"?>
<svg width="24px" height="24px" viewBox="0 0 24 24" version="1.1" xmlns="http://www.w3.org/2000/svg" xmlns:xlink="http://www.w3.org/1999/xlink">
    <title>radar_line</title>
    <g id="页面-1" stroke="none" stroke-width="1" fill="none" fill-rule="evenodd">
        <g id="Device" transform="translate(-432.000000, -96.000000)" fill-rule="nonzero">
            <g id="radar_line" transform="translate(432.000000, 96.000000)">
                 <path d="M24,0 L24,24 L0,24 L0,0 L24,0 Z M12.5934901,23.257841 L12.5819402,23.2595131 L12.5108777,23.2950439 L12.4918791,23.2987469 L12.4918791,23.2987469 L12.4767152,23.2950439 L12.4056548,23.2595131 C12.3958229,23.2563662 12.3870493,23.2590235 12.3821421,23.2649074 L12.3780323,23.275831 L12.360941,23.7031097 L12.3658947,23.7234994 L12.3769048,23.7357139 L12.4804777,23.8096931 L12.4953491,23.8136134 L12.4953491,23.8136134 L12.5071152,23.8096931 L12.6106902,23.7357139 L12.6232938,23.7196733 L12.6232938,23.7196733 L12.6266527,23.7031097 L12.609561,23.275831 C12.6075724,23.2657013 12.6010112,23.2592993 12.5934901,23.257841 L12.5934901,23.257841 Z M12.8583906,23.1452862 L12.8445485,23.1473072 L12.6598443,23.2396597 L12.6498822,23.2499052 L12.6498822,23.2499052 L12.6471943,23.2611114 L12.6650943,23.6906389 L12.6699349,23.7034178 L12.6699349,23.7034178 L12.678386,23.7104931 L12.8793402,23.8032389 C12.8914285,23.8068999 12.9022333,23.8029875 12.9078286,23.7952264 L12.9118235,23.7811639 L12.8776777,23.1665331 C12.8752882,23.1545897 12.8674102,23.1470016 12.8583906,23.1452862 L12.8583906,23.1452862 Z M12.1430473,23.1473072 C12.1332178,23.1423925 12.1221763,23.1452606 12.1156365,23.1525954 L12.1099173,23.1665331 L12.0757714,23.7811639 C12.0751323,23.7926639 12.0828099,23.8018602 12.0926481,23.8045676 L12.108256,23.8032389 L12.3092106,23.7104931 L12.3186497,23.7024347 L12.3186497,23.7024347 L12.3225043,23.6906389 L12.340401,23.2611114 L12.337245,23.2485176 L12.337245,23.2485176 L12.3277531,23.2396597 L12.1430473,23.1473072 Z" id="MingCute" fill-rule="nonzero"></path>
                <path d="M4.92893,4.92894 C5.31946,4.53842 5.95262,4.53842 6.34315,4.92894 C6.73367,5.31946 6.73367,5.95263 6.34315,6.34315 C4.89434,7.79196 4,9.79059 4,12 C4,14.2094 4.89434,16.2081 6.34315,17.6569 C6.73367,18.0474 6.73367,18.6806 6.34315,19.0711 C5.95262,19.4616 5.31946,19.4616 4.92893,19.0711 C3.12038,17.2625 2,14.7612 2,12 C2,9.23886 3.12038,6.73749 4.92893,4.92894 Z M17.6569,4.92894 C18.0474,4.53842 18.6805,4.53842 19.0711,4.92894 C20.8796,6.73749 22,9.23886 22,12 C22,14.7612 20.8796,17.2625 19.0711,19.0711 C18.6805,19.4616 18.0474,19.4616 17.6569,19.0711 C17.2663,18.6806 17.2663,18.0474 17.6569,17.6569 C19.1057,16.2081 20,14.2094 20,12 C20,9.79059 19.1057,7.79196 17.6569,6.34315 C17.2663,5.95263 17.2663,5.31946 17.6569,4.92894 Z M9.17157,7.75737 C9.5621,8.1479 9.5621,8.78106 9.17157,9.17158 C8.44662,9.89654 8,10.8952 8,12 C8,13.1293 8.4667,14.1479 9.22042,14.8765 C9.61752,15.2603 9.62828,15.8934 9.24445,16.2905 C8.86061,16.6876 8.22754,16.6983 7.83044,16.3145 C6.70299,15.2247 6,13.6936 6,12 C6,10.3434 6.67267,8.84206 7.75736,7.75737 C8.14788,7.36685 8.78105,7.36685 9.17157,7.75737 Z M16.2819,7.79704 C17.3436,8.87851 18,10.3636 18,12 C18,13.6566 17.3273,15.158 16.2426,16.2427 C15.8521,16.6332 15.219,16.6332 14.8284,16.2427 C14.4379,15.8521 14.4379,15.219 14.8284,14.8284 C15.5534,14.1035 16,13.1049 16,12 C16,10.9085 15.5641,9.92079 14.8547,9.1981 C14.4678,8.80397 14.4737,8.17084 14.8678,7.78394 C15.2619,7.39705 15.895,7.40291 16.2819,7.79704 Z M12,10.5 C12.8284,10.5 13.5,11.1716 13.5,12 C13.5,12.8284 12.8284,13.5 12,13.5 C11.1716,13.5 10.5,12.8284 10.5,12 C10.5,11.1716 11.1716,10.5 12,10.5 Z" id="形状结合" fill="#09244B"></path>
            </g>
        </g>
    </g>
</svg>

<svg xmlns="http://www.w3.org/2000/svg" width="24" height="24"><g fill="none" fill-rule="nonzero"><path d="M24 0v24H0V0h24ZM12.593 23.258l-.011.002-.071.035-.02.004-.014-.004-.071-.035c-.01-.004-.019-.001-.024.005l-.004.01-.017.428.005.02.01.013.104.074.015.004.012-.004.104-.074.012-.016.004-.017-.017-.427c-.002-.01-.009-.017-.017-.018Zm.265-.113-.013.002-.185.093-.01.01-.003.011.018.43.005.012.008.007.201.093c.012.004.023 0 .029-.008l.004-.014-.034-.614c-.003-.012-.01-.02-.02-.022Zm-.715.002a.023.023 0 0 0-.027.006l-.006.014-.034.614c0 .012.007.02.017.024l.015-.002.201-.093.01-.008.004-.011.017-.43-.003-.012-.01-.01-.184-.092Z"/><path fill="#09244B" d="M4.929 4.929a1 1 0 0 1 1.414 1.414A7.972 7.972 0 0 0 4 12c0 2.21.894 4.208 2.343 5.657A1 1 0 1 1 4.93 19.07 9.972 9.972 0 0 1 2 12a9.972 9.972 0 0 1 2.929-7.071Zm12.728 0a1 1 0 0 1 1.414 0A9.972 9.972 0 0 1 22 12a9.972 9.972 0 0 1-2.929 7.071 1 1 0 0 1-1.414-1.414A7.972 7.972 0 0 0 20 12c0-2.21-.894-4.208-2.343-5.657a1 1 0 0 1 0-1.414ZM9.172 7.757a1 1 0 0 1 0 1.415A3.984 3.984 0 0 0 8 12c0 1.13.467 2.148 1.22 2.877a1 1 0 1 1-1.39 1.437A5.985 5.985 0 0 1 6 12c0-1.657.673-3.158 1.757-4.243a1 1 0 0 1 1.415 0Zm7.11.04A5.984 5.984 0 0 1 18 12a5.984 5.984 0 0 1-1.757 4.243 1 1 0 0 1-1.415-1.415A3.984 3.984 0 0 0 16 12c0-1.091-.436-2.08-1.145-2.802a1 1 0 0 1 1.427-1.401ZM12 10.5a1.5 1.5 0 1 1 0 3 1.5 1.5 0 0 1 0-3Z"/></g></svg>
